X: 85
T:Old Copper Plate
R:Reel
S:Trad.
B:Matt Cranitch
M:C|
L:1/8
Q:1/2=112
K:Ador
|:A2EA cAA2|aged cABA|G2DG BGG2|gedc BGGB|
A2EA cAA2|aged cAAB|ABcd ef (3gfe|[1 aged cAA2:|[2 aged cAA2||
ageg a2ab|aged cAA2|gfef g3a|gedc BGG2|
ageg  (3aaa ab|aged cAAB|ABcd ef (3gfe|aged cAA2:|
